src/images/single-assets/weETHk.svg

<svg width="37" height="37" viewBox="0 0 37 37" fill="none" xmlns="http://www.w3.org/2000/svg">
<path d="M18.5 5L10 10M18.5 5L14 12.1471M18.5 5L27 10M18.5 5L23 12.1471M10 18.5L18.0321 22.7523C18.3248 22.9072 18.6752 22.9072 18.9679 22.7523L27 18.5M10 18.5V10M10 18.5L14 12.1471M10 21L18.0321 25.2523C18.3248 25.4072 18.6752 25.4072 18.9679 25.2523L27 21M10 21V27M10 21L13.261 25.2201M10 27L18.5 32M10 27L13.261 25.2201M18.5 32L13.261 25.2201M18.5 32L27 27M18.5 32L23.739 25.2201M10 10L14 12.1471M27 18.5V10M27 18.5L23 12.1471M27 21V27M27 21L23.739 25.2201M27 27L23.739 25.2201M27 10L23 12.1471" stroke="#DF5E00" stroke-width="0.7" stroke-linejoin="round"/>
<circle cx="18.5" cy="18.5" r="17.15" stroke="url(#paint0_linear_4574_8960)" stroke-width="0.7"/>
<path d="M28.7837 20.9952H28.784C33.0854 20.9952 36.5723 24.4822 36.5723 28.7836V28.7838C36.5723 33.0852 33.0854 36.5722 28.784 36.5722H28.7837C24.4823 36.5722 20.9953 33.0852 20.9953 28.7838V28.7836C20.9953 24.4822 24.4823 20.9952 28.7837 20.9952Z" fill="#CF6627" stroke="#5B5555" stroke-width="0.422999"/>
<path d="M29.5163 24.0241C29.7237 24.227 29.7389 24.5648 29.606 24.8093C29.6031 24.8147 29.6029 24.8202 29.6054 24.8257C29.8081 25.2872 29.9793 25.6905 30.2165 26.025C30.5128 26.4428 30.8169 26.8351 31.0746 27.2999C31.1205 27.3828 31.121 27.4504 31.1106 27.54C31.11 27.5463 31.1116 27.5518 31.1155 27.5566C31.2502 27.7229 31.4101 27.721 31.615 27.7036C31.9207 27.6775 32.134 27.6666 32.2549 27.6708C33.0374 27.6978 33.6864 28.2401 33.7295 29.0432C33.7515 29.4504 33.6927 29.8283 33.4795 30.1699C33.2519 30.5346 32.9429 30.8174 32.5527 31.0184C32.4667 31.0627 32.3804 31.1066 32.2938 31.15C31.9269 31.3342 31.7552 31.8805 31.8502 32.2578C31.8766 32.3623 31.9555 32.594 32.0866 32.9526C32.105 33.0026 32.1125 33.0417 32.1092 33.07C32.093 33.2076 31.8808 33.2698 31.7628 33.2806C31.7599 33.2809 31.757 33.2821 31.7548 33.2842C31.7526 33.2863 31.7511 33.289 31.7505 33.292C31.6937 33.6159 31.5266 33.9622 31.2511 34.1543C31.1722 34.2093 31.0585 34.2606 30.91 34.3084C30.5096 34.4371 30.1006 34.5074 29.6828 34.5192C29.0077 34.5385 28.3661 34.4938 27.7362 34.2707C27.4242 34.1601 27.2033 33.8878 27.0921 33.5841C26.8922 33.0382 26.9635 32.4549 27.21 31.9383C27.2958 31.7587 27.3974 31.5598 27.4623 31.3935C27.705 30.7725 27.7482 30.1 27.6259 29.446C27.4839 28.6858 26.8729 28.0977 26.1436 27.8793C25.5893 27.7136 24.9972 27.7487 24.4341 27.804C24.2278 27.8242 24.2247 27.7155 24.3531 27.6044C24.6962 27.3072 25.146 27.1608 25.5957 27.113C26.1421 27.0546 26.6555 27.123 27.1347 27.3899C27.3276 27.4974 27.4413 27.6229 27.6057 27.8003C27.6322 27.8289 27.6581 27.8473 27.6836 27.8556C27.6854 27.8562 27.6873 27.8563 27.6892 27.856C27.691 27.8557 27.6928 27.8549 27.6942 27.8538C27.6957 27.8526 27.6969 27.8511 27.6977 27.8495C27.6984 27.8478 27.6988 27.8459 27.6986 27.8441C27.6901 27.7119 27.6731 27.5822 27.6476 27.455C27.6327 27.3808 27.6836 27.312 27.7185 27.2473C27.9739 26.7738 28.3296 26.3432 28.6583 25.8655C28.6795 25.8346 28.6978 25.8037 28.7132 25.7726C28.8676 25.4611 29.0155 25.1464 29.1569 24.8286C29.1594 24.8225 29.1592 24.8167 29.1561 24.811C29.0219 24.5638 29.0341 24.2287 29.2472 24.0252C29.2494 24.0232 29.2507 24.0206 29.2512 24.0178C29.2517 24.015 29.2512 24.0121 29.2498 24.0096C29.191 23.904 29.1761 23.792 29.2049 23.6736C29.228 23.578 29.3323 23.4184 29.4429 23.4982C29.6027 23.6132 29.6005 23.8512 29.514 24.0086C29.5108 24.0143 29.5116 24.0194 29.5163 24.0241ZM33.3685 29.3189C33.3354 28.8549 33.0457 28.4195 32.5934 28.269C32.0373 28.084 31.3317 28.4459 30.9426 28.8282C30.938 28.8327 30.9354 28.8381 30.9351 28.8446C30.918 29.1182 30.9126 29.3921 30.9189 29.6662C30.9345 30.3426 31.1249 31.0363 31.4117 31.6477C31.4149 31.6545 31.4183 31.6546 31.4219 31.6481C31.6223 31.2885 31.9169 31.013 32.2614 30.7952C32.4045 30.705 32.6153 30.616 32.7456 30.5376C32.8789 30.4572 33.0037 30.3361 33.1201 30.1743C33.3078 29.9133 33.3906 29.6282 33.3685 29.3189Z" fill="white"/>
<defs>
<linearGradient id="paint0_linear_4574_8960" x1="18.5" y1="1" x2="18.5" y2="36" gradientUnits="userSpaceOnUse">
<stop stop-color="#B45AFA"/>
<stop offset="1" stop-color="#29BCFA"/>
</linearGradient>
</defs>
</svg>

<svg xmlns="http://www.w3.org/2000/svg" width="37" height="37" fill="none"><path stroke="#DF5E00" stroke-linejoin="round" stroke-width=".7" d="M18.5 5 10 10m8.5-5L14 12.147M18.5 5l8.5 5m-8.5-5 4.5 7.147M10 18.5l8.032 4.252a1 1 0 0 0 .936 0L27 18.5m-17 0V10m0 8.5 4-6.353M10 21l8.032 4.252a1 1 0 0 0 .936 0L27 21m-17 0v6m0-6 3.261 4.22M10 27l8.5 5M10 27l3.261-1.78M18.5 32l-5.239-6.78M18.5 32l8.5-5m-8.5 5 5.239-6.78M10 10l4 2.147M27 18.5V10m0 8.5-4-6.353M27 21v6m0-6-3.261 4.22M27 27l-3.261-1.78M27 10l-4 2.147"/><circle cx="18.5" cy="18.5" r="17.15" stroke="url(#a)" stroke-width=".7"/><path fill="#CF6627" stroke="#5B5555" stroke-width=".423" d="M28.784 20.995a7.788 7.788 0 0 1 0 15.577 7.788 7.788 0 0 1 0-15.577Z"/><path fill="#fff" d="M29.516 24.024c.208.203.223.54.09.785a.02.02 0 0 0 0 .017c.202.461.373.864.61 1.199.297.418.6.81.859 1.275.046.083.046.15.036.24q-.002.01.005.017c.134.166.294.164.499.147q.459-.04.64-.033c.782.027 1.431.57 1.474 1.372.023.407-.036.785-.25 1.127a2.33 2.33 0 0 1-.926.848q-.13.067-.26.132c-.366.184-.538.73-.443 1.108q.04.156.237.695.027.075.022.117c-.016.138-.228.2-.346.21l-.008.004-.005.008c-.056.324-.223.67-.499.862a1.3 1.3 0 0 1-.341.154q-.6.195-1.227.211c-.675.02-1.317-.025-1.947-.248-.312-.11-.533-.383-.644-.687-.2-.546-.128-1.13.118-1.646.086-.18.187-.378.252-.544a3.54 3.54 0 0 0 .164-1.948c-.142-.76-.753-1.348-1.482-1.567-.555-.165-1.147-.13-1.71-.075-.206.02-.21-.088-.08-.2.342-.297.792-.443 1.242-.491.546-.058 1.06.01 1.539.277.193.107.306.233.47.41a.2.2 0 0 0 .079.056h.005l.005-.002.004-.005v-.005a3 3 0 0 0-.05-.389c-.015-.074.036-.143.07-.208.256-.473.612-.904.94-1.381a1 1 0 0 0 .055-.093q.232-.468.444-.944a.02.02 0 0 0 0-.018c-.135-.247-.123-.582.09-.786a.013.013 0 0 0 .003-.015.45.45 0 0 1-.045-.336c.023-.096.127-.256.238-.176.16.115.157.353.071.51q-.004.009.002.016m3.852 5.295c-.033-.464-.322-.9-.775-1.05-.556-.185-1.261.177-1.65.56a.02.02 0 0 0-.008.016 10 10 0 0 0-.016.821c.015.677.206 1.37.493 1.982q.004.01.01 0a2.4 2.4 0 0 1 .84-.853c.142-.09.353-.179.484-.257a1.3 1.3 0 0 0 .374-.364 1.27 1.27 0 0 0 .248-.855"/><defs><linearGradient id="a" x1="18.5" x2="18.5" y1="1" y2="36" gradientUnits="userSpaceOnUse"><stop stop-color="#B45AFA"/><stop offset="1" stop-color="#29BCFA"/></linearGradient></defs></svg>
